X:1
T:Eileen Aroon
M:4/4
L:1/4
K:C
 G A B| c3/2 d/2 e2| G2 A3/2 c/2| c4| G2 A B| c3/2 d/2 e2| G2 A3/2 c/2|\
 c4| e2 e e| f3/2 A/2 A2| e2 d c| c3/2 A/2 G2| g2 f/2e/2 d/2c/2| c3/2 d/2 e2|\
 G2 A3/2 c/2| c4| z||
